dist/svg/u1F4D1.svg

<?xml version="1.0" encoding="UTF-8"?><svg id="a" xmlns="http://www.w3.org/2000/svg" viewBox="0 0 40 40"><rect width="40" height="40" transform="translate(40 40) rotate(-180)" fill="none"/><g><g><path d="M4.376,5.48v29.04c0,1.094,.886,1.98,1.98,1.98H22.526l9.9-9.9V5.48c0-1.094-.886-1.98-1.98-1.98H6.356c-1.094,0-1.98,.886-1.98,1.98Z" fill="#e5e9ee" fill-rule="evenodd"/><path d="M24.506,26.6h7.92l-9.9,9.9v-7.92c0-1.094,.886-1.98,1.98-1.98Z" fill="#c0c7d1" fill-rule="evenodd"/></g><g><line x1="4.376" y1="9.43" x2="32.426" y2="9.43" fill="none" stroke="#d0d5da" stroke-linejoin="round" stroke-width=".971"/><line x1="4.376" y1="14.016" x2="32.426" y2="14.016" fill="none" stroke="#d0d5da" stroke-linejoin="round" stroke-width=".971"/><line x1="4.376" y1="18.602" x2="32.426" y2="18.602" fill="none" stroke="#d0d5da" stroke-linejoin="round" stroke-width=".971"/><line x1="4.376" y1="23.188" x2="32.426" y2="23.188" fill="none" stroke="#d0d5da" stroke-linejoin="round" stroke-width=".971"/></g><path d="M32.426,6.43h2.228c.536,0,.971,.435,.971,.971v5.148c0,.536-.435,.971-.971,.971h-2.228V6.43h0Z" fill="#4592fb"/><path d="M34.654,23.519h-2.228v-7.089h2.228c.536,0,.971,.435,.971,.971v5.148c0,.536-.435,.971-.971,.971Z" fill="#ffc100"/></g></svg>

<svg id="Layer_1" data-name="Layer 1" xmlns="http://www.w3.org/2000/svg" viewBox="0 0 40 40"><defs><style>.cls-1,.cls-4{fill:none;}.cls-2{fill:#e5e9ee;}.cls-2,.cls-3{fill-rule:evenodd;}.cls-3{fill:#c0c7d1;}.cls-4{stroke:#d0d5da;stroke-linejoin:round;stroke-width:0.971px;}.cls-5{fill:#4592fb;}.cls-6{fill:#ffc100;}</style></defs><rect class="cls-1" width="40" height="40" transform="translate(40 40) rotate(-180)"/><path class="cls-2" d="M4.376,5.48V34.52a1.979,1.979,0,0,0,1.98,1.98h16.17l9.9-9.9V5.48a1.98,1.98,0,0,0-1.98-1.98H6.356A1.979,1.979,0,0,0,4.376,5.48Z"/><path class="cls-3" d="M24.506,26.6h7.92l-9.9,9.9V28.58A1.979,1.979,0,0,1,24.506,26.6Z"/><line class="cls-4" x1="4.376" y1="9.43" x2="32.426" y2="9.43"/><line class="cls-4" x1="4.376" y1="14.016" x2="32.426" y2="14.016"/><line class="cls-4" x1="4.376" y1="18.602" x2="32.426" y2="18.602"/><line class="cls-4" x1="4.376" y1="23.188" x2="32.426" y2="23.188"/><path class="cls-5" d="M32.426,6.43h2.228a.971.971,0,0,1,.971.971v5.148a.971.971,0,0,1-.971.971H32.426a0,0,0,0,1,0,0V6.43A0,0,0,0,1,32.426,6.43Z"/><path class="cls-6" d="M34.654,23.519H32.426V16.43h2.228a.97.97,0,0,1,.97.97v5.148A.97.97,0,0,1,34.654,23.519Z"/></svg>
